X: 1
T:Trip to Kilburn [1].  PFD2.351, A
W:Longways for as many as will.
L:1/4
B:Playford's Dancing Master, Vol 2, 1713-28
Z:vmp.Mike Hicken 2015 www.village-music-project.org.uk
N: The title is A Trip to Kilburn in the tune index but is Kiliburn on the music page.
M:C|
Q:1/2=90
K:G
dgfg|B/A/ GF (E/D/)|G/B/A/c/ B/d/c/e/|d/B/c/A/ BG|
dgfg|a g/f/ ea|g/f/e/d/ ^c/e/A/c/|d/F/E/^c/ dD||
d/A/B/c/ B>d|e/g/f/e/ ^d>B|c/B/ A/G/ F/A/G/B/|g/f/e/^d/ e>e|
d/B/c/A/ B/d/ G/B/|c/E/F/G/ FD|G/E/C/E/ A/F/D/F/|G/B,/A,/F/ GG, |]
W:
W: Note: Each Strain is to be play'd twice over.
W:
W: First Cu. cast off, \and Hands round with the 3d Cu. and lead thro' the 3d Cu .|  Hands round
W: with the 2d Cu. and lead thro' the 2d Cu. :|  Hands all fix quite round, and stand in the 2d Cu.
W: Place .|  Then Right and Left quite round with the 2d Cu. and turn your Partner :|

